app/images/iconos_v2/GCBA-compromisos-icons-34.svg

<svg xmlns="http://www.w3.org/2000/svg" width="750" height="750" viewBox="585 165 750 750"><path fill="#5A5B5B" d="M955.68 222.4c-88.45 0-160.094 10.01-160.094 80.047v190.108c0 38.684 31.36 70.054 70.038 70.054h180.113c38.675 0 70.037-31.372 70.037-70.055V302.447c0-70.037-71.644-80.047-160.093-80.047zm-90.056 300.184c-16.576 0-30.015-13.446-30.015-30.03 0-16.566 13.438-30.013 30.014-30.013 16.583 0 30.02 13.447 30.02 30.015.002 16.583-13.437 30.03-30.02 30.03zm70.044-120.07h-100.06V302.447h100.06v100.067zm110.07 120.07c-16.584 0-30.022-13.446-30.022-30.03 0-16.566 13.438-30.013 30.02-30.013 16.576 0 30.016 13.447 30.016 30.015 0 16.583-13.44 30.03-30.015 30.03zm30.014-120.07h-100.06V302.447h100.06v100.067zM675.5 577.606v278.998h68.32v-8.07c0-119.384 96.786-216.173 216.18-216.173 119.385 0 216.165 96.79 216.165 216.174v8.07h68.335V577.606h-569z"/></svg>

<?xml version="1.0" encoding="utf-8"?>
<!-- Generator: Adobe Illustrator 15.1.0, SVG Export Plug-In . SVG Version: 6.00 Build 0)  -->
<!DOCTYPE svg PUBLIC "-//W3C//DTD SVG 1.1//EN" "http://www.w3.org/Graphics/SVG/1.1/DTD/svg11.dtd">
<svg version="1.1" id="Layer_1" xmlns="http://www.w3.org/2000/svg" xmlns:xlink="http://www.w3.org/1999/xlink" x="0px" y="0px" width="750px" height="750px"
	 viewBox="585 165 750 750" enable-background="new 585 165 750 750" xml:space="preserve">

	<g>
		<g>
			<g>
				<g>
					<path fill="#5A5B5B" d="M955.681,222.4c-88.45,0-160.095,10.01-160.095,80.047v190.108c0,38.684,31.361,70.054,70.038,70.054
						h180.113c38.675,0,70.037-31.371,70.037-70.054V302.447C1115.774,232.41,1044.13,222.4,955.681,222.4z M865.624,522.584
						c-16.576,0-30.015-13.446-30.015-30.029c0-16.567,13.439-30.014,30.015-30.014c16.583,0,30.021,13.446,30.021,30.014
						C895.646,509.138,882.207,522.584,865.624,522.584z M935.668,402.514H835.609V302.447h100.059V402.514z M1045.737,522.584
						c-16.583,0-30.021-13.446-30.021-30.029c0-16.567,13.438-30.014,30.021-30.014c16.575,0,30.015,13.446,30.015,30.014
						C1075.752,509.138,1062.313,522.584,1045.737,522.584z M1075.752,402.514h-100.06V302.447h100.06V402.514z"/>
				</g>
			</g>
			<path fill="#5A5B5B" d="M675.5,577.606v278.998h68.319v-8.07c0-119.384,96.787-216.173,216.181-216.173
				c119.385,0,216.165,96.789,216.165,216.173v8.07h68.335V577.606H675.5z"/>
		</g>
	</g>


</svg>
